svg/set/ZNE/R.svg

<?xml version="1.0" encoding="UTF-8"?>
<svg id="Layer_2" data-name="Layer 2" xmlns="http://www.w3.org/2000/svg" xmlns:xlink="http://www.w3.org/1999/xlink" viewBox="0 0 725.02 1039.9">
  <defs>
    <style>
      .cls-1 {
        fill: url(#linear-gradient);
      }

      .cls-1, .cls-2 {
        stroke-width: 0px;
      }

      .cls-2 {
        fill: url(#linear-gradient-2);
      }
    </style>
    <linearGradient id="linear-gradient" x1="-591.89" y1="519.95" x2="-590.89" y2="519.95" gradientTransform="matrix(0,0,0,0,0,1039.92)" gradientUnits="userSpaceOnUse">
      <stop offset="0" stop-color="#000"/>
      <stop offset="1" stop-color="#000"/>
    </linearGradient>
    <linearGradient id="linear-gradient-2" x1="-591.89" y1="1060.02" x2="-590.89" y2="1060.02" gradientTransform="translate(686443.07 308202.59) rotate(-36.69) scale(619.43 -619.43)" gradientUnits="userSpaceOnUse">
      <stop offset="0" stop-color="#8d742f"/>
      <stop offset=".07" stop-color="#967d38"/>
      <stop offset=".18" stop-color="#ae954f"/>
      <stop offset=".2" stop-color="#b39a54"/>
      <stop offset=".22" stop-color="#b9a059"/>
      <stop offset=".3" stop-color="#cab068"/>
      <stop offset=".39" stop-color="#d4ba71"/>
      <stop offset=".5" stop-color="#d7bd74"/>
      <stop offset=".61" stop-color="#d4ba71"/>
      <stop offset=".7" stop-color="#cab068"/>
      <stop offset=".78" stop-color="#b9a059"/>
      <stop offset=".8" stop-color="#b39a54"/>
      <stop offset=".86" stop-color="#a38a45"/>
      <stop offset=".94" stop-color="#937a35"/>
      <stop offset="1" stop-color="#8d742f"/>
    </linearGradient>
  </defs>
  <g id="Layer_1-2" data-name="Layer 1">
    <path class="cls-1" d="M385.22,0l-10.97,16.32L14.18,551.98l-14.18,21.23,312.65,466.69h140.59l271.78-489.8L385.22,0h0Z"/>
    <path class="cls-2" d="M317.17,168.11l43.99,85.27,1.68,105.49,114.32,183.11c15.06,43.74,12.17,88.73-8.51,134.96,47.09-72.5,62.82-123.14,47.15-151.96-15.67-28.85-51.36-87.3-107.12-175.42l.41-98.2,36.1-83.29,235.69,383.06-235.69,427.12-40.76-70.1.46-112.55-123.3-169.84c-20.68-35.03-17.24-76.3,10.39-123.7-56.27,56.41-72.55,103.54-48.88,141.28l113.36,161.68-.71,102.67-38.53,70.56L45.84,573.2,317.17,168.04v.07h0Z"/>
  </g>
</svg>

<?xml version="1.0" encoding="UTF-8" standalone="no"?>
<svg
   id="Layer_2"
   data-name="Layer 2"
   viewBox="0 0 725.02 1039.9"
   version="1.1"
   width="725.02002"
   height="1039.9"
   xmlns="http://www.w3.org/2000/svg"
   xmlns:svg="http://www.w3.org/2000/svg">
  <defs
     id="defs17">
    <style
       id="style1">
      .cls-1 {
        fill: url(#linear-gradient);
      }

      .cls-1, .cls-2 {
        stroke-width: 0px;
      }

      .cls-2 {
        fill: url(#linear-gradient-2);
      }
    </style>
    <linearGradient
       id="linear-gradient"
       x1="-591.89001"
       y1="519.95001"
       x2="-590.89001"
       y2="519.95001"
       gradientTransform="matrix(0,0,0,0,0,1039.92)"
       gradientUnits="userSpaceOnUse">
      <stop
         offset="0"
         stop-color="#000"
         id="stop1" />
      <stop
         offset="1"
         stop-color="#000"
         id="stop2" />
    </linearGradient>
    <linearGradient
       id="linear-gradient-2"
       x1="-591.89001"
       y1="1060.02"
       x2="-590.89001"
       y2="1060.02"
       gradientTransform="matrix(496.70849,-370.10026,-370.10026,-496.70849,686443.07,308202.59)"
       gradientUnits="userSpaceOnUse">
      <stop
         offset="0"
         stop-color="#8d742f"
         id="stop3" />
      <stop
         offset=".07"
         stop-color="#967d38"
         id="stop4" />
      <stop
         offset=".18"
         stop-color="#ae954f"
         id="stop5" />
      <stop
         offset=".2"
         stop-color="#b39a54"
         id="stop6" />
      <stop
         offset=".22"
         stop-color="#b9a059"
         id="stop7" />
      <stop
         offset=".3"
         stop-color="#cab068"
         id="stop8" />
      <stop
         offset=".39"
         stop-color="#d4ba71"
         id="stop9" />
      <stop
         offset=".5"
         stop-color="#d7bd74"
         id="stop10" />
      <stop
         offset=".61"
         stop-color="#d4ba71"
         id="stop11" />
      <stop
         offset=".7"
         stop-color="#cab068"
         id="stop12" />
      <stop
         offset=".78"
         stop-color="#b9a059"
         id="stop13" />
      <stop
         offset=".8"
         stop-color="#b39a54"
         id="stop14" />
      <stop
         offset=".86"
         stop-color="#a38a45"
         id="stop15" />
      <stop
         offset=".94"
         stop-color="#937a35"
         id="stop16" />
      <stop
         offset="1"
         stop-color="#8d742f"
         id="stop17" />
    </linearGradient>
  </defs>
  <g
     id="Layer_1-2"
     data-name="Layer 1">
    <path
       class="cls-1"
       d="M 385.22,0 374.25,16.32 14.18,551.98 0,573.21 312.65,1039.9 H 453.24 L 725.02,550.1 Z"
       id="path17"
       style="fill:url(#linear-gradient)" />
    <path
       class="cls-2"
       d="m 317.17,168.11 43.99,85.27 1.68,105.49 114.32,183.11 c 15.06,43.74 12.17,88.73 -8.51,134.96 47.09,-72.5 62.82,-123.14 47.15,-151.96 -15.67,-28.85 -51.36,-87.3 -107.12,-175.42 l 0.41,-98.2 36.1,-83.29 235.69,383.06 -235.69,427.12 -40.76,-70.1 0.46,-112.55 -123.3,-169.84 c -20.68,-35.03 -17.24,-76.3 10.39,-123.7 -56.27,56.41 -72.55,103.54 -48.88,141.28 L 356.46,805.02 355.75,907.69 317.22,978.25 45.84,573.2 317.17,168.04 Z"
       id="path18"
       style="fill:url(#linear-gradient-2)" />
  </g>
</svg>
